X:1
T:1. Berceuse (Lullaby)
T:5. Tendresse (Tenderness) 
T:Gabriel Fauré
C:Gabriel Fauré
%%score { 1 | 2 } { ( 3 4 7 ) | ( 5 6 ) }
L:1/8
Q:1/4=72
M:3/4
K:Db
V:1 treble nm="Prima" snm="P."
V:2 treble 
V:3 bass nm="Seconda" snm="S."
V:4 bass 
V:7 bass 
V:5 bass 
V:6 bass 
V:1
"^Andante""_dolce espress."!mp! (F2 G2 A2 |!<(! !fermata!B>!fermata!_c !fermata!c2 B2)!<)! | %2
 (^B2 ^c2!>(! =A2!>)! |!p! _A>!fermata!=G !fermata!F3 !fermata!E) |!p! (d2 c2 !tenuto!.e2- | %5
 (3!fermata!eBc c3 d) |"_cresc." (e2 d2 !tenuto!.f2- | (3!fermata!fde e3 !fermata!f) | %8
!f! _c'2- (c'b!fermata!a>!fermata!^f) | ^f2- f!>(!(.f.=e.!fermata!=d)!>)! | %10
!p! c4!<(! !fermata!c2!<)! |!f! c'2- (c'=b!fermata!=a>!fermata!=g) | =g2- g!>(!(.g.f._e)!>)! | %13
!p! d4 !tenuto!.d2- |"_cresc." d(=Bc=d!fermata!fe | %15
!<(! _g)=ga!fermata!=a!fermata!c'!fermata!_b!<)! |!ff! !fermata!f'2- f'd'c'b- | %17
 b a2 !fermata!_g2 !fermata!_f |!>(! (e2 d2 !fermata!A2!>)! |!p! !fermata!d2-) !fermata!d z z2 || %20
[K:Ab]"^tranquillamente"!p! z (a ge) z (c/d/ | cA) z c E2 | z (a ge) z (c/=d/ | cA) z c E2- | %24
 (E>F Ge=dc) |"_cresc." (G>A Bgfe) | (=d>c BGBc |!>(! =de!fermata!f e2) e-!>)! | %28
!p! !fermata!e(a ge) z (c/d/ | cA) z c E2 | z!mp! (a b_g) z (f/g/ | fd) z f B2- | %32
"_cresc." (B>c dagf) | (c>d ec'ba) | (g>f ecef |!>(! g>!fermata!a b a2) !fermata!a-!>)! | %36
!p! !fermata!a(=b ^a^g) z (=e/^f/ | =ec) z e =G2 | %38
"^Poco rit." !fermata!z (!fermata!g ^f=e) !fermata!z (!fermata!^c/!fermata!=d/ | %39
 !fermata!^c!fermata!G) !fermata!z !fermata!c !fermata!^E2- || %40
[K:Db]"_dolce espress."!mp!"^a Tempo" (F2 G2 A2 |!<(! !fermata!B>!fermata!_c !fermata!c2 B2)!<)! | %42
 (^B2 ^c2!>(! =A2!>)! |!p! _A>!fermata!=G !fermata!F3 !fermata!E) |!p! (d2 c2 !tenuto!.e2- | %45
 (3!fermata!eBc c3 d) |"_cresc." (e2 d2 !tenuto!.f2- | (3!fermata!fde e3 !fermata!f) | %48
!f! _c'2- (c'b!fermata!a>!fermata!^f) | ^f2- f!>(!(.f.=e.!fermata!=d)!>)! | %50
!p! c4!<(! !fermata!c2!<)! |!f! c'2- (c'=b!fermata!=a>!fermata!=g) | =g2- g!>(!(.g.f._e)!>)! | %53
!p! d4 !tenuto!.d2- |"_cresc." d(=Bc=d!fermata!fe | %55
!<(! _g)=ga!fermata!=a!fermata!c'!fermata!_b!<)! |!ff! !fermata!f'2- f'd'c'b- | %57
 b a2 !fermata!_g2 !fermata!_f |!>(! (e2 d2 !fermata!A2)!>)! |!p! !fermata!d6- |!>(! d2!p! A4!>)! | %61
!pp! !fermata!A6 | !fermata!A6 | !fermata!A6 |] %64
V:2
 z6 | z6 | z6 | z6 | (D2 C2 !tenuto!.E2- | (3EB,C C3 D) | (E2 D2 !tenuto!.F2- | (3FDE E3 F) | %8
 _c2- (cBA>^F) | ^F2- F(.F.=E.=D) | C4 C2 | c2- (c=B=A>=G) | =G2- G(.G.F._E) | D4 !tenuto!.D2- | %14
 D(=B,C=DFE | _G)=GA=Ac_B | f2- fdcB- | B A2 G2 _F | (E2 D2 C2 | D) z z2 z2 ||[K:Ab] z6 | z6 | z6 | %23
 z6 | z6 | z6 | z6 | z6 | z6 | z6 | z6 | z6 | z6 | z6 | z6 | z6 | z6 | z6 | z6 | z6 ||[K:Db] z6 | %41
 z6 | z6 | z6 | (D2 C2 !tenuto!.E2- | (3EB,C C3 D) | (E2 D2 !tenuto!.F2- | (3FDE E3 F) | %48
 _c2- (cBA>^F) | ^F2- F(.F.=E.=D) | C4 C2 | c2- (c=B=A>=G) | =G2- G(.G.F._E) | D4 !tenuto!.D2- | %54
 D(=B,C=DFE | _G)=GA=Ac_B | f2- fdcB- | B A2 G2 _F | (E2 D2 C2) | D6- | D4 C2 | D6 | D6 | %63
 !fermata!D6 |] %64
V:3
!p!"_dolce" F,A,G,B,A,_C |!<(! B,!fermata!D_C=DB,E!<)! | ^B,^D^C=E!>(!=A,!fermata!C!>)! | %3
!p! _B,!fermata!_D_A,=C_G,A, |!p! (F,2 G,2 A,2-) | A,4 =G,2 | (A,2 B,2 _C2 | %7
!<(! A,2 D2 !fermata!_C2)!<)! |!f! (=D4 E2) | z (=D=A,^F,!>(! =G,2)!>)! | %10
!p! (=A,3!<(! [=E,=G,][F,_A,][_E,_G,])!<)! |!f! (^D4 =E2) |!mf! z (_E_B,=G,!>(! _A,2)!>)! | %13
!p! (B,3 !fermata![F,A,][G,__B,][_F,__A,]) |!<(! [E,G,]4 [B,D-]2 | [A,D]3 [D,D]2 [=G,D]!<)! | %16
!ff! ([DA][A,F][B,_G][_G,D][A,E][E,C]) | %17
!f! ([A,_F][_F,_C]!fermata![D,D][F,A,]!fermata![_C,_C][F,A,]) | %18
!>(! (A,A,,A,!fermata!A,,G,!fermata!A,)!>)! |!p! (F, A,2 D[K:treble]F=G)!mp! || %20
[K:Ab]"^tranquillamente"!p! z2 z (A GE) | z (C/D/ CA,) z C | %22
"_"[I:staff +1] E,2[I:staff -1] z (A GE) | z (C/=D/ CA,) z C | %24
"_"[I:staff +1] E,2- (E,>!p!F, G,[I:staff -1]E |"_cr es  c." =DC) (G,>A, B,G | %26
 FE)[K:bass] (=D>C B,[=E,G,] |!>(! B,C[K:treble] =D>!fermata!EFE-)!>)! |!p! E E2 (A GE) | %29
 z (C/D/ CA,) z C |[I:staff +1] E,2[I:staff -1] z!mp! (A B_G) | z (F/_G/ FD) z F | %32
"_cresc." B,2- (B,>!courtesy!=C DA | GF) (C>D Ec | BA) (G>F E[=A,C] |!>(! E!fermata!F G>ABA-)!>)! | %36
 A!p! ^G2 (=B ^AG) | z (=E/^F/ EC) z E |"^Poco rit." G,2 z (G ^F=E) | %39
 z (^C/!fermata!=D/ C[I:staff +1]G,)[I:staff -1] z !fermata!C || %40
[K:Db][K:bass]!p!"_dolce""^a Tempo" (F,A,G,B,A,_C |!<(! B,!fermata!D_C=DB,E)!<)! | %42
!mp! (^B,^D^C=E!>(!=A,!fermata!C!>)! |!p! _B,!fermata!_D_A,=C_G,A,) |!p! (F,2 G,2 A,2-) | %45
 A,4 =G,2 | (A,2 B,2 _C2 |!<(! A,2 D2 !fermata!_C2)!<)! |!f! (=D4 E2) | z (=D=A,^F,!>(! =G,2)!>)! | %50
!p! (=A,3!<(! [=E,=G,][F,_A,][_E,_G,])!<)! |!f! (^D4 =E2) |!mf! z (_E_B,=G,!>(! _A,2)!>)! | %53
!p! (B,3 !fermata![F,A,][G,__B,][_F,__A,]) |!<(! [E,G,]4 [B,D-]2 | [A,D]3 [D,D]2 [=G,D]!<)! | %56
!ff! ([DA][A,F][B,_G][_G,D][A,E][E,C]) | %57
!f! ([A,_F][_F,_C]!fermata![D,D][F,A,]!fermata![_C,C][F,A,] | %58
!>(! A,A,,A,!fermata!A,,G,!fermata!A,)!>)! |!p! (B,4 A,2 | =G,4 !fermata!_G,2) |!pp! F,6 | %62
 [A,,F,]6 | !fermata![A,,F,]6 |] %64
V:4
 (D,2 E,2 F,2 | G,2 A,2 G,2) | ([^D,=A,]2 [=E,A,]2 ^C,2 | =E,2 =C,4) | z A,,2 !fermata!A,,2 A,,- | %5
 A,, A,,2 A,,2 A,,- | A,, A,,2 D,2 D,- | D, D,2 D,2 D, | z =D,A,_C B,2 | z2 =D,2 =E,2- | E, x5 | %11
 z ^D,=A,C =B,2 | z2 _E,2 F,2- | F, x5 | x6 | x6 | x6 | x6 | x6 | F,4[K:treble] D2 ||[K:Ab] x6 | %21
 x6 | x6 | x6 | x6 | x6 | x2[K:bass] x4 | x2[K:treble] x4 | x6 | x6 | x6 | x6 | x6 | x3 E x2 | x6 | %35
 x6 | x6 | x6 | x6 | x6 ||[K:Db][K:bass] (D,2 E,2 F,2 | G,2 A,2 G,2) | ([^D,=A,]2 [=E,A,]2 ^C,2 | %43
 =E,2 =C,4) | z A,,2 !fermata!A,,2 A,,- | A,, A,,2 A,,2 A,,- | A,, A,,2 D,2 D,- | D, D,2 D,2 D, | %48
 z =D,A,_C B,2 | z2 =D,2 =E,2- | E, x5 | z ^D,=A,C =B,2 | z2 _E,2 F,2- | F, x5 | x6 | x6 | x6 | %57
 x6 | x6 | z D,2 D,2!>(! A,,- | A,, A,,2 A,,2 !fermata!A,,-!>)! | A,,6 | x6 | x6 |] %64
V:5
!p!!ped! (A,,2!ped-up!!ped! B,,2!ped-up!!ped! _C,2!ped-up! | %1
!ped! D,2!ped-up!!ped! =D,2!ped-up!!ped! E,2)!ped-up! | %2
!ped! =E,,6!ped-up!!ped!!ped-up!!ped!!ped-up! | %3
!mp!!ped! (C,,2!ped-up!!ped! [F,,,F,,]2!ped-up!!ped! A,,,2)!ped-up! | %4
!p!!ped! (D,,2!ped-up!!ped! E,,2!ped-up!!ped! G,,2!ped-up! | %5
!ped! F,,2!ped-up!!ped! =E,,4)!ped-up! |!ped! (F,,2!ped-up!!ped! G,,2!ped-up!!ped! A,,2!ped-up! | %7
!ped! _C,2!ped-up!!ped! B,,2!ped-up!!ped! A,,2)!ped-up! |!ped! [G,,,G,,]6!ped-up! | %9
!ped! [=A,,,=A,,]6-!ped-up! | %10
!ped! ([A,,,A,,]2!ped-up!!ped! [B,,,B,,]2!ped-up!!ped! [_A,,,_A,,]2)!ped-up! | %11
!ped! [=G,,,=G,,]6!ped-up! |!ped! [_B,,,_B,,]6-!ped-up! | %13
!ped! ([B,,,B,,]2!ped-up!!mp!!ped! [_C,,_C,]2!ped-up!!ped! [__B,,,__B,,]2-)!ped-up! | %14
 [B,,,B,,]2 [A,,,A,,]2 [=G,,,=G,,]2 | [_G,,,_G,,]2 [F,,,F,,]2 [_F,,,_F,,]2 | %16
!ped! [E,,,E,,]4!ped-up!!ped!!ped-up!!ped! [G,,,G,,]2!ped-up! | %17
!ped! [_F,,,_F,,]6!ped-up!!ped!!ped-up!!ped!!ped-up! | %18
!ped! [=F,,,=F,,]4!ped-up!!ped! [A,,,A,,]2!ped-up! | %19
!ped! (D,,2!ped-up!!ped! C,2!ped-up!!ped! B,,2)!ped-up! || %20
[K:Ab]!p!!ped! A,,[E,C]!ped-up!!p!!ped! (B,,/E,/D)!ped-up!!p!!ped! C,[G,C]!ped-up! | %21
!p!!ped! (D,/A,/[I:staff -1]F)!ped-up!!p!!ped![I:staff +1] E,,E,!ped-up!!p!!ped! (E,/G,/[I:staff -1]D)!ped-up! | %22
!p!!ped![I:staff +1] A,,[E,C]!ped-up!!p!!ped! (B,,/E,/D)!ped-up!!p!!ped! C,[G,C]!ped-up! | %23
!p!!ped! (=D,/A,/[I:staff -1]F)!ped-up!!p!!ped![I:staff +1] E,,E,!ped-up!!p!!ped! (F,,/C,/A,)!ped-up! | %24
!p!!ped! G,,[C,G,]!ped-up!!p!!ped! (A,,/G,/C)!ped-up!!p!!ped! =A,,G,!ped-up! | %25
!p!!ped! (B,,/E,/[I:staff -1]E)!ped-up!!p!!ped![I:staff +1] C,[I:staff -1]E!ped-up!!p!!ped![I:staff +1] (=D,/_A,/B,)!ped-up! | %26
!p!!ped! E,[F,=A,]!ped-up!!p!!ped! (=E,/G,/=D)!ped-up!!p!!ped! (C,>B,,)!ped-up! | %27
!p!!ped! (A,,/F,/B,)!ped-up!!p!!ped! A,,[G,C]!ped-up!!p!!ped! (A,,/!fermata![_E,G,]/_D)!ped-up! | %28
!p!!p!!ped! A,,[E,C]!ped-up!!p!!ped! (B,,/E,/D)!ped-up!!p!!ped! C,[G,C]!ped-up! | %29
!p!!ped! (D,/A,/[I:staff -1]F)!ped-up!!p!!ped![I:staff +1] E,,E,!ped-up!!p!!ped! (E,/G,/[I:staff -1]D)!ped-up! | %30
!p!!ped![I:staff +1] D,[A,E]!ped-up!!p!!ped! (C,/A,/E)!ped-up!!p!!ped! D,[B,D]!ped-up! | %31
!p!!ped! (D,,/D,/[I:staff -1]_C)!ped-up!!p!!ped![I:staff +1] _G,,[D,B,]!ped-up!!p!!ped! (A,,/F,/D)!ped-up! | %32
!p!!ped! =G,,[E,D]!ped-up!!p!!ped! (F,,/D,/A,)!ped-up!!p!!ped! B,,[F,D]!ped-up! | %33
!p!!ped! (E,/G,/C)!ped-up!!p!!ped! D,G,!ped-up!!p!!ped! (C,/E,/[I:staff -1]E)!ped-up! | %34
!p!!ped![I:staff +1] A,[B,=D]!ped-up!!p!!ped! (=A,/C/[I:staff -1]G)!ped-up!!p!!ped![I:staff +1] (F,>E,)!ped-up! | %35
!p!!ped! (_D,/E,/E)!ped-up!!p!!ped! C,!fermata![B,=E]!ped-up!!p!!ped! (_C,/!fermata!_F,/_C)!ped-up! | %36
!p!!ped! =E,,[=B,,=E,]!ped-up!!p!!ped! (^E,,/^C,/^C)!ped-up!!p!!ped! ^F,,[C,=B,]!ped-up! | %37
!p!!ped! ^G,,/=E,/=C!ped-up!!p!!ped! C,,[=G,,E,]!ped-up!!p!!ped! =B,,/C,/G,!ped-up! | %38
!p!!ped! _B,,[=E,=D]!ped-up!!p!!ped! (=A,,/!fermata!G,/^C)!ped-up!!p!!ped! G,,[A,,=A,]!ped-up! | %39
!p!!ped! (=F,,/!fermata!=A,,/=A,)!ped-up!!p!!ped! =E,,[A,,A,]!ped-up!!p!!ped! (G,,/!fermata!A,,/A,)!ped-up! || %40
[K:Db]!p!!ped! (A,,2!ped-up!!ped! B,,2!ped-up!!ped! _C,2!ped-up! | %41
!ped! D,2!ped-up!!ped! =D,2!ped-up!!ped! E,2)!ped-up! | %42
!ped! =E,,6!ped-up!!ped!!ped-up!!ped!!ped-up! | %43
!mp!!ped! (C,,2!ped-up!!ped! [F,,,F,,]2!ped-up!!ped! A,,,2)!ped-up! | %44
!p!!ped! (D,,2!ped-up!!ped! E,,2!ped-up!!ped! G,,2!ped-up! | %45
!ped! F,,2!ped-up!!ped! =E,,4)!ped-up! |!ped! (F,,2!ped-up!!ped! G,,2!ped-up!!ped! A,,2!ped-up! | %47
!ped! _C,2!ped-up!!ped! B,,2!ped-up!!ped! A,,2)!ped-up! |!ped! [G,,,G,,]6!ped-up! | %49
!ped! [=A,,,=A,,]6-!ped-up! | %50
!ped! ([A,,,A,,]2!ped-up!!ped! [_B,,,_B,,]2!ped-up!!ped! [_A,,,_A,,]2)!ped-up! | %51
!ped! [=G,,,=G,,]6!ped-up! |!ped! [_B,,,_B,,]6-!ped-up! | %53
!ped! ([B,,,B,,]2!ped-up!!mp!!ped! [_C,,_C,]2!ped-up!!ped! [__B,,,__B,,]2-)!ped-up! | %54
 [B,,,B,,]2 [A,,,A,,]2 [=G,,,=G,,]2 | [_G,,,_G,,]2 [F,,,F,,]2 [_F,,,_F,,]2 | %56
!ped! [E,,,E,,]4!ped-up!!ped!!ped-up!!ped! [G,,,G,,]2!ped-up! | %57
!ped! [_F,,,_F,,]6!ped-up!!ped!!ped-up!!ped!!ped-up! | %58
!ped! [=F,,,=F,,]4!ped-up!!ped! [A,,,A,,]2-!ped-up! | %59
!ped! [A,,,A,,]2!mp! [G,,,G,,]2!ped-up!!ped! [F,,,F,,]2-!ped-up! | %60
!ped! [F,,,F,,]2!ped-up!!ped! [_F,,,_F,,]2!ped-up!!ped! [E,,,E,,]2!ped-up! |!ped! [D,,,D,,]6 | %62
 [D,,,D,,]6 | !fermata![D,,,D,,]6!ped-up! |] %64
V:6
 D,,6 | G,,6 | x6 | x6 | x6 | x6 | x6 | x6 | x6 | x6 | x6 | x6 | x6 | x6 | x6 | x6 | x6 | x6 | x6 | %19
 x6 ||[K:Ab] x6 | x6 | x6 | x6 | x6 | x6 | x6 | x6 | x6 | x6 | x6 | x6 | x6 | x6 | x6 | x6 | x6 | %37
 x6 | x6 | x6 ||[K:Db] D,,6 | G,,6 | x6 | x6 | x6 | x6 | x6 | x6 | x6 | x6 | x6 | x6 | x6 | x6 | %54
 x6 | x6 | x6 | x6 | x6 | x6 | x6 | x6 | x6 | x6 |] %64
V:7
 x6 | x6 | x6 | x6 | x6 | x6 | x6 | x6 | x6 | x6 | x =F,2 x3 | x6 | x6 | x _G,2 x3 | x6 | x6 | x6 | %17
 x6 | x6 | x4[K:treble] x2 ||[K:Ab] x6 | x6 | x6 | x6 | x6 | x6 | x2[K:bass] x4 | x2[K:treble] x4 | %28
 x6 | x6 | x6 | x6 | x6 | x6 | x6 | x6 | x6 | x6 | x6 | x6 ||[K:Db][K:bass] x6 | x6 | x6 | x6 | %44
 x6 | x6 | x6 | x6 | x6 | x6 | x =F,2 x3 | x6 | x6 | x _G,2 x3 | x6 | x6 | x6 | x6 | x6 | x6 | x6 | %61
 x6 | x6 | x6 |] %64

